packages/assets/static/images/icons/snow-plow.svg

<svg width="24" height="24" viewBox="0 0 24 24" xmlns="http://www.w3.org/2000/svg">
<g clip-path="url(#clip0_2076_2714)">
<path d="M15.1372 7.02311C15.2759 7.26404 15.5281 7.39811 15.7878 7.39811C15.9153 7.39811 16.0437 7.36529 16.1619 7.29779L18.0022 6.23561V8.35998C18.0022 8.77436 18.3378 9.10998 18.7522 9.10998C19.1665 9.10998 19.5022 8.77436 19.5022 8.35998V6.23561L21.3425 7.29779C21.4606 7.36623 21.589 7.39811 21.7165 7.39811C21.9753 7.39811 22.2275 7.26311 22.3672 7.02311C22.5744 6.66404 22.4515 6.20561 22.0925 5.99842L20.2522 4.93623L22.0925 3.87404C22.4515 3.66686 22.5744 3.20842 22.3672 2.84936C22.16 2.49029 21.7015 2.36748 21.3425 2.57467L19.5022 3.63686V1.51248C19.5022 1.09811 19.1665 0.76248 18.7522 0.76248C18.3378 0.76248 18.0022 1.09811 18.0022 1.51248V3.63686L16.1619 2.57467C15.8028 2.36748 15.3444 2.49029 15.1372 2.84936C14.93 3.20842 15.0528 3.66686 15.4119 3.87404L17.2522 4.93623L15.4119 5.99842C15.0528 6.20561 14.93 6.66404 15.1372 7.02311Z"/>
<path d="M22.8322 21.5103C21.679 21.5103 21.4372 20.4444 21.4372 19.5509V13.2294C21.4372 11.704 22.1337 11.3834 22.7187 11.3834C23.1331 11.3834 23.4687 11.0478 23.4687 10.6334C23.4687 10.219 23.1331 9.88342 22.7187 9.88342C21.0031 9.88342 19.9372 11.1659 19.9372 13.2294V15.35C19.8547 15.319 19.7656 15.3012 19.6728 15.3012H18.3781L18.3556 14.5278C18.3509 12.3969 17.0422 11.1247 14.8531 11.1247H12.0687L9.64154 5.38154C9.38654 4.75717 8.78654 4.35404 8.11154 4.35404H2.69748C2.64686 4.35404 2.59717 4.35967 2.55029 4.36904C2.50248 4.35967 2.45279 4.35404 2.40311 4.35404C1.98873 4.35404 1.65311 4.68967 1.65311 5.10404V11.1247H1.16748C0.753105 11.1247 0.41748 11.4603 0.41748 11.8747C0.41748 12.289 0.753105 12.6247 1.16748 12.6247H14.854C15.7137 12.6247 16.8565 12.8234 16.8565 14.539C16.8565 14.5465 16.8565 14.554 16.8565 14.5606L17.0037 19.5556C17 19.6372 16.9334 19.7019 16.8509 19.7019H14.6534C14.6609 19.6006 14.6665 19.4994 14.6665 19.3962C14.6665 17.2681 12.9359 15.5375 10.8078 15.5375C8.67967 15.5375 6.94904 17.2681 6.94904 19.3962C6.94904 19.4994 6.95467 19.6015 6.96217 19.7028H1.26029C0.845918 19.7028 0.510293 20.0384 0.510293 20.4528C0.510293 20.8672 0.845918 21.2028 1.26029 21.2028H7.31467C7.34186 21.2028 7.36904 21.2009 7.39623 21.1981C8.04498 22.4206 9.32936 23.255 10.8069 23.255C12.2844 23.255 13.5669 22.4215 14.2156 21.2019H16.85C17.7612 21.2019 18.5028 20.4603 18.5028 19.549C18.5028 19.5415 18.5028 19.534 18.5028 19.5275L18.4231 16.8012H19.6737C19.7665 16.8012 19.8556 16.7834 19.9381 16.7525V19.5509C19.9381 21.6528 21.0744 23.0103 22.8331 23.0103C23.2475 23.0103 23.5831 22.6747 23.5831 22.2603C23.5831 21.8459 23.2465 21.5103 22.8322 21.5103ZM3.15217 11.1237V5.85311H8.11154C8.17436 5.85311 8.22967 5.8906 8.25311 5.94873C8.25498 5.95248 8.25592 5.95623 8.25779 5.95998L10.4403 11.1237H3.15217ZM10.8069 21.7559C9.50654 21.7559 8.44811 20.6975 8.44811 19.3972C8.44811 18.0969 9.50654 17.0384 10.8069 17.0384C12.1072 17.0384 13.1656 18.0969 13.1656 19.3972C13.1656 20.6975 12.1072 21.7559 10.8069 21.7559Z"/>
<path d="M5.22404 15.4915C5.63842 15.4915 5.97404 15.1559 5.97404 14.7415C5.97404 14.3272 5.63842 13.9915 5.22404 13.9915H2.85404C2.43967 13.9915 2.10404 14.3272 2.10404 14.7415C2.10404 15.1559 2.43967 15.4915 2.85404 15.4915H5.22404Z"/>
<path d="M10.7656 3.21967H11.0731V3.43154C11.0731 3.84592 11.4087 4.18154 11.8231 4.18154C12.2375 4.18154 12.5731 3.84592 12.5731 3.43154V3.21967H12.8881C13.3025 3.21967 13.6381 2.88404 13.6381 2.46967C13.6381 2.05529 13.3025 1.71967 12.8881 1.71967H12.5731V1.49561C12.5731 1.08123 12.2375 0.745605 11.8231 0.745605C11.4087 0.745605 11.0731 1.08123 11.0731 1.49561V1.71967H10.7656C10.3512 1.71967 10.0156 2.05529 10.0156 2.46967C10.0156 2.88404 10.3512 3.21967 10.7656 3.21967Z"/>
</g>
<defs>
<clipPath id="clip0_2076_2714">
<rect width="24" height="24"/>
</clipPath>
</defs>
</svg>

<svg viewBox="0 0 24 24" xmlns="http://www.w3.org/2000/svg" aria-hidden="true" fill="currentColor" height="24px" width="24px"><g clip-path="url(#a)"><path d="M15.137 7.023a.75.75 0 0 0 1.025.275l1.84-1.062V8.36a.75.75 0 1 0 1.5 0V6.236l1.84 1.062a.753.753 0 0 0 1.025-.275.75.75 0 0 0-.274-1.025l-1.84-1.062 1.84-1.062a.75.75 0 1 0-.75-1.3l-1.84 1.063V1.512a.75.75 0 1 0-1.5 0v2.125l-1.841-1.062a.75.75 0 1 0-.75 1.299l1.84 1.062-1.84 1.062a.75.75 0 0 0-.275 1.025"/><path d="M22.832 21.51c-1.153 0-1.395-1.066-1.395-1.96v-6.32c0-1.526.697-1.847 1.282-1.847a.75.75 0 1 0 0-1.5c-1.716 0-2.782 1.283-2.782 3.346v2.121a.8.8 0 0 0-.264-.049h-1.295l-.022-.773c-.005-2.131-1.314-3.403-3.503-3.403H12.07L9.642 5.382a1.65 1.65 0 0 0-1.53-1.028H2.697q-.076 0-.147.015a.75.75 0 0 0-.897.735v6.02h-.486a.75.75 0 1 0 0 1.5h13.687c.86 0 2.003.2 2.003 1.915v.022l.147 4.995a.153.153 0 0 1-.153.146h-2.198q.013-.151.013-.306a3.863 3.863 0 0 0-3.858-3.859 3.863 3.863 0 0 0-3.846 4.166H1.26a.75.75 0 1 0 0 1.5h6.055a1 1 0 0 0 .081-.005 3.86 3.86 0 0 0 3.41 2.057 3.86 3.86 0 0 0 3.41-2.053h2.634c.911 0 1.653-.742 1.653-1.653v-.021l-.08-2.727h1.25a.8.8 0 0 0 .265-.048v2.798c0 2.102 1.136 3.46 2.895 3.46a.75.75 0 1 0 0-1.5M3.152 11.124v-5.27h4.96c.062 0 .118.037.141.095l.005.011 2.182 5.164zm7.655 10.632a2.36 2.36 0 0 1-2.359-2.359c0-1.3 1.059-2.359 2.359-2.359s2.359 1.059 2.359 2.36-1.059 2.358-2.36 2.358"/><path d="M5.224 15.492a.75.75 0 1 0 0-1.5h-2.37a.75.75 0 1 0 0 1.5zM10.766 3.22h.307v.212a.75.75 0 1 0 1.5 0V3.22h.315a.75.75 0 1 0 0-1.5h-.315v-.224a.75.75 0 1 0-1.5 0v.224h-.307a.75.75 0 1 0 0 1.5"/></g><defs><clipPath id="a"><path d="M0 0h24v24H0z"/></clipPath></defs></svg>
